!!!!SEGMENT: pl-wtm--r-1532_stefani-jozef--czy-wroci-sie.krn
!!!id: 18xx:2241
!!!COM: Stefani, Józef
!!!COM-rism: pe30024097
!!!CDT: 1800/04/16-1876/03/19
!!!CNT: Polish
!!!OTL: Czy wróci się
!!!PDT:
!!!SMS-siglum: PL-Wtm
!!!SMS-shelfmark: R 1532
!!!NIFC-rismID: 1001120470
!!!URL-scan: http://repozytorium.nifc.pl/skany/pl-wtm-nut--r1532
!!!ONB-nifc:
!!!SMS-variant:
!!!SMS-altvar:
!!!OMD:Andantino.
**kern	**dynam	**kern	**dynam	**kern	**text	**dynam	**kern	**dynam	**kern	**dynam	**kern	**dynam	**kern	**dynam	**kern	**dynam	**kern	**dynam	**kern	**dynam
*	*	*	*	*	*	*	*	*	*group1	*group1	*group1	*group1	*	*	*	*	*	*	*	*
*part10	*part10	*part9	*part9	*part8	*part8	*part8	*part7	*part7	*part6	*part6	*part5	*part5	*part4	*part4	*part3	*part3	*part2	*part2	*part1	*part1
*staff10	*	*staff9	*	*staff8	*staff8	*	*staff7	*	*staff6	*	*staff5	*	*staff4	*	*staff3	*	*staff2	*	*staff1	*
*	*	*	*	*	*	*	*	*	*I'Violini	*	*I'Violini	*	*	*	*	*	*	*	*	*
*I"C: Basſo	*	*I"Violncello	*	*I"Voce	*	*	*I"Viole	*	*	*	*	*	*I"Fagotti	*	*I"Corni in C	*	*I"Clarinetti in C.	*	*I"Flauto	*
*clefF4	*	*clefF4	*	*clefG2	*	*	*clefC3	*	*clefG2	*	*clefG2	*	*clefF4	*	*clefG2	*	*clefG2	*	*clefG2	*
*Trd0c0	*	*	*	*	*	*	*	*	*	*	*	*	*	*	*Trd0c0	*	*	*	*	*
*k[]	*	*k[]	*	*k[]	*	*	*k[]	*	*k[]	*	*k[]	*	*k[]	*	*k[]	*	*k[]	*	*k[]	*
*M6/8	*	*M6/8	*	*M6/8	*	*	*M6/8	*	*M6/8	*	*M6/8	*	*M6/8	*	*M6/8	*	*M6/8	*	*M6/8	*
*all\right	*	*all\right	*	*all\right	*	*	*all\right	*	*all\right	*	*all\right	*	*all\right	*	*all\right	*	*all\right	*	*all\right	*
!	!LO:DY:rj	!	!LO:DY:rj	!	!	!	!	!	!	!	!	!LO:DY:rj	!	!	!	!	!	!	!	!
(8E\	p	(8E\yy	py	8r	.	.	(8E/	.	(8e/	.	(8e/	p	8r	.	8r	.	8r	.	8r	.
=1	=1	=1	=1	=1	=1	=1	=1	=1	=1	=1	=1	=1	=1	=1	=1	=1	=1	=1	=1	=1
4F\)	.	4F\)yy	.	2.r	.	.	4F/)	.	4f/)	.	4f/)	.	2.r	.	2.r	.	2.r	.	2.r	.
(8A\	.	(8A\yy	.	.	.	.	(8A/	.	(8a/	.	(8a/	.	.	.	.	.	.	.	.	.
4c\)	.	4c\)yy	.	.	.	.	4c/)	.	4cc\)	.	4cc\)	.	.	.	.	.	.	.	.	.
(8D#X\	.	(8D#X\yy	.	.	.	.	(8D#X/	.	(8d#X/	.	(8d#X/	.	.	.	.	.	.	.	.	.
=2	=2	=2	=2	=2	=2	=2	=2	=2	=2	=2	=2	=2	=2	=2	=2	=2	=2	=2	=2	=2
*	*	*	*	*	*	*	*	*	*	*	*	*	*^	*	*	*	*^	*	*	*
4E\)	.	4E\)yy	.	2.r	.	.	4E/)	.	4e/)	.	4e/)	.	8r	8ryy	.	8r	.	8r	8ryy	.	8r	.
.	.	.	.	.	.	.	.	.	.	.	.	.	8r	8ryy	.	8r	.	8r	8ryy	.	8r	.
8Dn\	.	8Dn\yy	.	.	.	.	8B/	.	8e/	.	8g#X/	<	8dn/	8Dn/	.	8ee/ 8e/	.	8g#X/	8e\	.	8gg#X\	<
4C/	.	4C/yy	.	.	.	.	8A/L	.	4e/	.	4a/	.	4c/	4C/	.	4ee/ 4e/	.	4a/ 4e/	4.ryy	.	4aa\	.
.	.	.	.	.	.	.	8c/J	.	.	.	.	.	.	.	.	.	.	.	.	.	.	.
8GG#X/	.	8GG#X/yy	.	.	.	.	8e\	.	8e/	.	8b/	[[	8G#X/ 8GG#X/	8ryy	.	8ee/ 8e/	.	8b/ 8e/	.	.	8bb\	.
*	*	*	*	*	*	*	*	*	*	*	*	*	*v	*v	*	*	*	*	*	*	*	*
=3	=3	=3	=3	=3	=3	=3	=3	=3	=3	=3	=3	=3	=3	=3	=3	=3	=3	=3	=3	=3	=3
4AA/	.	4AA/yy	.	2.r	.	.	4.e\	.	4.a/	.	4.cc\	.	4.A/ 4.AA/	.	4.ee/ 4.e/	.	4.cc/	4.a\	.	4.ccc\	[
8A\	.	8A\yy	.	.	.	.	.	.	.	.	.	.	.	.	.	.	.	.	.	.	.
4.F\	.	4.F\yy	.	.	.	.	4.f\	.	(4a/	.	(8.dd\L	.	4.F/ 4.FF/	.	4.dd/ 4.f/	.	(8.dd/L	4a\	.	8.ddd\L	.
.	.	.	.	.	.	.	.	.	.	.	16cc\L	.	.	.	.	.	16cc/L	.	.	(16ccc\L	.
.	.	.	.	.	.	.	.	.	16b/LL	.	16b\	.	.	.	.	.	16b/	16b\LL	.	16bb\	.
.	.	.	.	.	.	.	.	.	16a/JJ)	.	16a\JJ)	.	.	.	.	.	16a/JJ)	16a\JJ	.	16aa\JJ)	.
!!LO:PB:g=original
=4	=4	=4	=4	=4	=4	=4	=4	=4	=4	=4	=4	=4	=4	=4	=4	=4	=4	=4	=4	=4	=4
*	*	*	*	*	*	*	*	*	*	*	*	*	*	*	*^	*	*	*	*	*	*
!	!LO:DY:a:rj	!	!LO:DY:a:rj	!	!	!	!	!	!	!	!	!LO:DY:rj	!	!	!	!	!	!	!	!	!	!LO:DY:rj
4.E\	p	4.E\yy	py	4r	.	.	4.e\	.	4.g#X/	.	(4ee\	f	4.E/ 4.EE/	.	4.ee/	4.g#X\	.	(4ee/	(4.g#X\	.	(4eee\	f
!	!LO:DY:a:rj	!	!LO:DY:a:rj	!	!	!	!	!	!	!	!	!	!	!	!	!	!	!	!	!	!	!
.	f	.	fy	8r	.	.	.	.	.	.	16dd#X\LL	.	.	.	.	.	.	16dd#X/LL	.	.	16ddd#X\LL	.
.	.	.	.	.	.	.	.	.	.	.	16ee\JJ)	.	.	.	.	.	.	16ee/JJ	.	.	16eee\JJ)	.
4E\	.	4E\yy	.	4r	.	.	4e\	.	4e/	.	4e/	.	4E/ 4EE/	.	4ee/ 4e/	4.ryy	.	4e/)	4e\)	.	4ee\	.
.	.	.	.	.	.	.	.	.	.	.	(32qqf/LLL	.	.	.	.	.	.	.	.	.	.	.
.	.	.	.	.	.	.	.	.	.	.	32qqe/	.	.	.	.	.	.	.	.	.	.	.
.	.	.	.	.	.	.	.	.	.	.	32qqd#X/JJJ	.	.	.	.	.	.	.	.	.	.	.
8r	.	8ryy	.	8e/	Czy	.	8r	.	8r	.	8e/)	.	8r	.	8r	.	.	8r	8ryy	.	8r	.
*	*	*	*	*	*	*	*	*	*	*	*	*	*	*	*v	*v	*	*	*	*	*	*
*	*	*	*	*	*	*	*	*	*	*	*	*	*	*	*	*	*v	*v	*	*	*
=5	=5	=5	=5	=5	=5	=5	=5	=5	=5	=5	=5	=5	=5	=5	=5	=5	=5	=5	=5	=5
!	!LO:DY:a:rj	!	!LO:DY:a:rj	!	!	!	!	!	!	!	!	!LO:DY:rj	!	!	!	!	!	!	!	!
4AA/	p	4AA/yy	py	4cc\	wró-	.	4A/	.	4e/	.	4cc\	p	2.r	.	2.r	.	2.r	.	2.r	.
8BB/	.	8BB/yy	.	8g#X/	-ci	.	8B/	.	8e/	.	8g#X/	.	.	.	.	.	.	.	.	.
4C/	.	4C/yy	.	4a/	się	.	4c/	.	4e/	.	4a/	.	.	.	.	.	.	.	.	.
.	.	.	.	.	.	.	.	.	.	.	(32qqf/LLL	.	.	.	.	.	.	.	.	.
.	.	.	.	.	.	.	.	.	.	.	32qqe/	.	.	.	.	.	.	.	.	.
.	.	.	.	.	.	.	.	.	.	.	32qqd#X/JJJ	.	.	.	.	.	.	.	.	.
8r	.	8ryy	.	8e/	Choć	.	8r	.	8r	.	8e/)	.	.	.	.	.	.	.	.	.
=6	=6	=6	=6	=6	=6	=6	=6	=6	=6	=6	=6	=6	=6	=6	=6	=6	=6	=6	=6	=6
*	*	*	*	*	*	*	*	*	*	*	*	*	*	*	*	*	*^	*	*	*
4AA/	.	4AA/yy	.	4cc\	wró-	.	4A/	.	4e/	.	4cc\	.	2.r	.	2.r	.	4r	2.r	.	4r	.
8BB/	.	8BB/yy	.	8g#X/	-ci	.	8B/	.	8e/	.	8g#X/	.	.	.	.	.	8r	.	.	8r	.
4C/	.	4C/yy	.	4a/	Maj	.	4c/	.	4e/	.	4a/	.	.	.	.	.	4r	.	.	4r	p
8r	.	8ryy	.	8ee\	Ah	.	8r	.	8r	.	8r	.	.	.	.	.	8ee/	.	.	8eee\	.
=7	=7	=7	=7	=7	=7	=7	=7	=7	=7	=7	=7	=7	=7	=7	=7	=7	=7	=7	=7	=7	=7
4GG#X/	.	4GG#X/yy	.	4ff\	szczę-	.	8r	.	8r	.	8r	.	2.r	.	2.r	.	4ff/	2.r	.	4fff\	.
.	.	.	.	.	.	.	8f\L	.	8d/L	.	8b\L	.	.	.	.	.	.	.	.	.	.
8r	.	8ryy	.	8ee\	-ście	.	8e\J	.	8d/J	.	8b\J	.	.	.	.	.	8ee/	.	.	8eee\	.
4G#X\	.	4G#X\yy	.	4b\	Co	.	8r	.	8r	.	8r	.	.	.	.	.	4b/	.	.	4bb\	.
.	.	.	.	.	.	.	8e\L	.	8d/L	.	8b\L	.	.	.	.	.	.	.	.	.	.
8r	.	8ryy	.	8b\	w snie	.	8e\J	.	8d/J	.	8b\J	.	.	.	.	.	8b/	.	.	8bb\	.
=8	=8	=8	=8	=8	=8	=8	=8	=8	=8	=8	=8	=8	=8	=8	=8	=8	=8	=8	=8	=8	=8
4A\	.	4A\yy	.	8.dd\	pło-	.	8r	.	8r	.	8r	.	2.r	.	2.r	.	8.dd/L	2.r	.	8.ddd\L	.
.	.	.	.	.	.	.	8e\L	.	8c/L	.	8a/L	.	.	.	.	.	.	.	.	.	.
.	.	.	.	16cc\	-niej	.	.	.	.	.	.	.	.	.	.	.	16cc/K	.	.	16ccc\K	.
8r	.	8ryy	.	8b\	jak	.	8e\J	.	8d/J	.	8g#X/J	.	.	.	.	.	8b/J	.	.	8bb\J	.
4AA/	.	4AA/yy	.	4a/	raj	.	4e\	.	4c/	.	4a/	.	.	.	.	.	4a/	.	.	4aa\	.
.	.	.	.	.	.	.	.	.	.	.	(32qqf/LLL	.	.	.	.	.	.	.	.	.	.
.	.	.	.	.	.	.	.	.	.	.	32qqe/	.	.	.	.	.	.	.	.	.	.
.	.	.	.	.	.	.	.	.	.	.	32qqd#X/JJJ)	.	.	.	.	.	.	.	.	.	.
8r	.	8ryy	.	8e/	Czy	.	8r	.	8r	.	8e/	.	.	.	.	.	8r	.	.	8r	.
*	*	*	*	*	*	*	*	*	*	*	*	*	*	*	*	*	*v	*v	*	*	*
!!LO:LB:g=original
=9	=9	=9	=9	=9	=9	=9	=9	=9	=9	=9	=9	=9	=9	=9	=9	=9	=9	=9	=9	=9
4AA/	.	4AA/yy	.	4cc\	wró-	.	4A/	.	4e/	.	4cc\	.	2.r	.	2.r	.	2.r	.	2.r	.
8BB/	.	8BB/yy	.	8g#X/	-ci	.	8B/	.	8e/	.	8g#X/	.	.	.	.	.	.	.	.	.
4C/	.	4C/yy	.	4a/	się	.	4c/	.	4e/	.	4a/	.	.	.	.	.	.	.	.	.
.	.	.	.	.	.	.	.	.	.	.	(32qqf/LLL	.	.	.	.	.	.	.	.	.
.	.	.	.	.	.	.	.	.	.	.	32qqe/	.	.	.	.	.	.	.	.	.
.	.	.	.	.	.	.	.	.	.	.	32qqd#X/JJJ	.	.	.	.	.	.	.	.	.
8r	.	8ryy	.	8e/	Noc	.	8r	.	8r	.	8e/)	.	.	.	.	.	.	.	.	.
=10	=10	=10	=10	=10	=10	=10	=10	=10	=10	=10	=10	=10	=10	=10	=10	=10	=10	=10	=10	=10
*	*	*	*	*	*	*	*	*	*	*	*	*	*	*	*^	*	*	*	*	*
4AA/	.	4AA/yy	.	(16cc\LL	ja-	.	4A/	.	4e/	.	4cc\	.	4r	.	4r	4ryy	.	4r	.	4r	.
.	.	.	.	16dd\J	.	.	.	.	.	.	.	.	.	.	.	.	.	.	.	.	.
.	.	.	.	8cc\J)	.	.	.	.	.	.	.	.	.	.	.	.	.	.	.	.	.
!	!LO:HP:a	!	!LO:HP:a	!	!	!	!	!	!	!	!	!	!	!	!	!	!	!	!	!	!
8BB/	<	8BB/yy	<	8g#X/	-sna	.	8B/	.	8e/	.	8g#X/	.	8r	.	8r	8ryy	.	8r	.	8r	.
4C/	.	4C/yy	.	4a/	ta	.	4c/	.	4e/	.	4a/	.	4r	.	4r	4ryy	.	4r	.	4r	.
8C#X/	[[	8C#X/yy	[[	8ee\	I	.	8c#X/	.	8a#X/ 8g/	.	8ee^\	.	(8C#X/	.	8gg/	8cc#X\	.	8ee\ 8a#X\	.	8eee^<\	.
*	*	*	*	*	*	*	*	*	*	*	*	*	*	*	*v	*v	*	*	*	*	*
=11	=11	=11	=11	=11	=11	=11	=11	=11	=11	=11	=11	=11	=11	=11	=11	=11	=11	=11	=11	=11
!	!LO:DY:a	!	!LO:DY:a	!	!	!	!	!	!	!	!	!LO:DY:rj	!	!	!	!	!	!	!	!LO:DY:rj
4D\	f	4D\yy	fy	(8dd\L	pie-	.	4d\	.	4b/ 4g/	.	4dd\	f	4D/)	.	4gg\ 4dd\	.	4dd\ 4b\	.	4ddd\	f
.	.	.	.	8gg\J)	.	.	.	.	.	.	.	.	.	.	.	.	.	.	.	.
8r	.	8ryy	.	8b\	-śni	.	8r	.	8r	.	8r	.	8r	.	8r	.	8r	.	8r	.
4.D\	.	4.D\yy	.	(8.ee\L	te	.	4.d\	.	4.d/ 4.c/	.	4.f#X/ 4.A/	.	4r	.	4r	.	4r	.	4r	.
.	.	.	.	16dd\Jk)	.	.	.	.	.	.	.	.	.	.	.	.	.	.	.	.
.	.	.	.	(16cc/LL	Co	.	.	.	.	.	.	.	8r	.	8r	.	8r	.	8r	.
.	.	.	.	16a/JJ)	.	.	.	.	.	.	.	.	.	.	.	.	.	.	.	.
=12	=12	=12	=12	=12	=12	=12	=12	=12	=12	=12	=12	=12	=12	=12	=12	=12	=12	=12	=12	=12
*	*	*	*	*	*	*	*	*	*	*	*	*	*	*	*	*	*^	*	*	*
8G\L	.	8G\Lyy	.	(8g/L	ser-	.	8g\L	.	8d/L 8G/	.	8g/L 8B/	.	8G\L	.	4r	.	(<8g/L	4ryy	.	(8gg\L	.
8D\	.	8D\yy	.	16f#X/L	.	.	8d\	.	8d/ 8G/	.	8g/ 8B/	.	8D\	.	.	.	16f#X/L	.	.	16ff#X\L	.
.	.	.	.	16g/JJ)	.	.	.	.	.	.	.	.	.	.	.	.	16g/JJ	.	.	16gg\)JJ	.
8BB\J	.	8BB\Jyy	.	(16b\LL	-ce	.	8B\J	.	8d/J 8G/	.	8g/J 8B/	.	8BB\J	.	8r	.	16b/LL	8ryy	.	(16bb\LL	.
.	.	.	.	16dd\JJ)	.	.	.	.	.	.	.	.	.	.	.	.	16dd/JJ)	.	.	16ddd\JJ)	.
!	!	!	!	!	!	!	!	!	!	!	!	!	!	!	!	!LO:DY:rj	!	!	!LO:DY:rj	!	!
4GG/	.	4GG/yy	.	4gg\	zna?	.	4G/	.	4d/ 4G/	.	4g/ 4B/	.	4GG/	.	4dd/ 4g/	f	4gg/	4b\	f	4ggg\	.
8r	.	8ryy	.	8g/	Oh!	.	8r	.	8r	.	8r	.	8r	.	8r	.	8r	8ryy	.	8r	.
*	*	*	*	*	*	*	*	*	*	*	*	*	*	*	*	*	*v	*v	*	*	*
!!LO:PB:g=original
=13	=13	=13	=13	=13	=13	=13	=13	=13	=13	=13	=13	=13	=13	=13	=13	=13	=13	=13	=13	=13
!	!LO:DY:a:rj	!	!LO:DY:a:rj	!	!	!	!	!	!	!	!	!LO:DY:rj	!	!	!	!LO:DY:rj	!	!	!	!
4GG/	p	4GG/yy	py	4ff\	wróć-	.	8r	.	8r	.	8r	p	2.r	.	2.dd/ 2.g/	p	2.r	.	2.r	.
.	.	.	.	.	.	.	(8B/L	.	(8d/L	.	(8f/L	.	.	.	.	.	.	.	.	.
8r	.	8ryy	.	8cc#X\	-cie	.	8G/J)	.	8G/J)	.	8g/J)	.	.	.	.	.	.	.	.	.
4GG/	.	4GG/yy	.	4dd\	znóW	.	8r	.	8r	.	8r	.	.	.	.	.	.	.	.	.
.	.	.	.	.	.	.	(8B/L	.	(8d/L	.	(8f/L	.	.	.	.	.	.	.	.	.
8r	.	8ryy	.	8g/	z Kra-	.	8G/J)	.	8G/J)	.	8g/J)	.	.	.	.	.	.	.	.	.
=14	=14	=14	=14	=14	=14	=14	=14	=14	=14	=14	=14	=14	=14	=14	=14	=14	=14	=14	=14	=14
*	*	*	*	*	*	*	*	*	*	*	*	*	*	*	*2\right	*	*	*	*	*
4GG/	.	4GG/yy	.	4ee\	-i-	.	8r	.	8r	.	8r	.	2.r	.	2.ee\ 2.cc\	.	2.r	.	2.r	.
.	.	.	.	.	.	.	(8c/L	.	(8c/L	.	(8e/L	.	.	.	.	.	.	.	.	.
8r	.	8ryy	.	8b\	-ny	.	8G/J)	.	8G/J)	.	8g/J)	.	.	.	.	.	.	.	.	.
4GG/	.	4GG/yy	.	4cc\	snów	.	8r	.	8r	.	8r	.	.	.	.	.	.	.	.	.
.	.	.	.	.	.	.	(8c/L	.	(8c/L	.	(8e/L	.	.	.	.	.	.	.	.	.
8r	.	8ryy	.	8g/	A-	.	8G/J)	.	8G/J)	.	8g/J)	.	.	.	.	.	.	.	.	.
=15	=15	=15	=15	=15	=15	=15	=15	=15	=15	=15	=15	=15	=15	=15	=15	=15	=15	=15	=15	=15
!	!	!	!	!	!	!	!	!	!	!	!	!	!	!	!	!	!	!	!	!LO:DY:rj
.	.	.	.	(32qqb/LLL	.	.	.	.	.	.	.	.	.	.	.	.	32qqb/LLL	.	(32qqbb/LLL	p
.	.	.	.	32qqcc/JJJ	.	.	.	.	.	.	.	.	.	.	.	.	32qqcc/JJJ	.	32qqccc/JJJ	.
*	*	*	*	*	*	*	*	*	*	*	*	*	*	*	*^	*	*^	*	*	*
4GG/	.	4GG/yy	.	4b/)	-nio-	.	8r	.	8r	.	8r	.	2.r	.	4.dd/ 4g/	4.ryy	.	4b/	2.r	.	4bb\)	.
.	.	.	.	.	.	.	(8d/L	.	(8B/L	.	(8d/L	.	.	.	.	.	.	.	.	.	.	.
8r	.	8ryy	.	8g/	-ły	.	8G/J)	.	8G/J)	.	8g/J)	.	.	.	.	.	.	8g/	.	.	8gg\	.
.	.	.	.	(32qqcc/LLL	.	.	.	.	.	.	.	.	.	.	.	.	.	32qqcc/LLL	.	.	(32qqccc/LLL	.
.	.	.	.	32qqdd/JJJ	.	.	.	.	.	.	.	.	.	.	.	.	.	32qqdd/JJJ	.	.	32qqddd/JJJ	.
4GG/	.	4GG/yy	.	4cc/)	mej	.	8r	.	8r	.	8r	.	.	.	4.ee/	4.cc\	.	4cc/	.	.	4ccc\)	.
.	.	.	.	.	.	.	(8c/L	.	(8c/L	.	(8e/L	.	.	.	.	.	.	.	.	.	.	.
8r	.	8ryy	.	8g/	prze-	.	8G/J)	.	8G/J)	.	8g/J)	.	.	.	.	.	.	8g/	.	.	8gg\	.
*	*	*	*	*	*	*	*	*	*	*	*	*	*	*	*v	*v	*	*	*	*	*	*
=16	=16	=16	=16	=16	=16	=16	=16	=16	=16	=16	=16	=16	=16	=16	=16	=16	=16	=16	=16	=16	=16
!	!LO:DY:a:rj	!	!LO:DY:a:rj	!	!	!	!	!	!	!	!	!LO:DY:rj	!	!	!	!LO:DY:rj	!	!	!	!	!LO:DY:rj
4G\	f	4G\yy	fy	(8.b\L	-szło-	.	8r	.	8r	.	8r	f	4.G\	.	4.dd/ 4.g/	f	(8.b/L	8.g\L	.	8.bb\L	f
.	.	.	.	.	.	.	(8d/L	.	(8B/L	.	(8d/L	.	.	.	.	.	.	.	.	.	.
.	.	.	.	16g\L	.	.	.	.	.	.	.	.	.	.	.	.	16g/L	16g\L	.	(16gg\L	.
8r	.	8ryy	.	16b\	.	.	8G/J)	.	8G/J)	.	8g/J)	.	.	.	.	.	16b/	16b\	.	16bb\	.
.	.	.	.	16dd\JJ)	.	.	.	.	.	.	.	.	.	.	.	.	16dd/JJ	16dd\JJ	.	16ddd\JJ	.
4GG/	.	4GG/yy	.	4gg\	-ści	.	8r	.	8r	.	8r	.	4GG/	.	4dd/ 4g/	.	4gg\)	4b\	.	4ggg\)	.
.	.	.	.	.	.	.	(8d/L	.	(8B/L	.	(8d/L	.	.	.	.	.	.	.	.	.	.
8r	.	8ryy	.	8g/	Nim	.	8G/J)	.	8G/J)	.	8g/J)	.	8r	.	8r	.	8r	8ryy	.	8r	.
*	*	*	*	*	*	*	*	*	*	*	*	*	*	*	*	*	*v	*v	*	*	*
!!LO:LB:g=original
=17	=17	=17	=17	=17	=17	=17	=17	=17	=17	=17	=17	=17	=17	=17	=17	=17	=17	=17	=17	=17
!	!LO:DY:a:rj	!	!LO:DY:a:rj	!	!	!	!	!	!	!LO:DY:rj	!	!LO:DY:rj	!	!	!	!LO:DY:rj	!	!	!	!
4GG/	p	4GG/yy	py	4ff\	zło-	.	8r	.	8r	p	8r	p	2.r	.	2.dd\ 2.g\	p	2.r	.	2.r	.
.	.	.	.	.	.	.	(8B/L	.	(8d/L	.	(8f/L	.	.	.	.	.	.	.	.	.
8r	.	8ryy	.	8cc#X\	-żą	.	8G/J)	.	8G/J)	.	8g/J)	.	.	.	.	.	.	.	.	.
4GG/	.	4GG/yy	.	4dd\	w grób	.	8r	.	8r	.	8r	.	.	.	.	.	.	.	.	.
.	.	.	.	.	.	.	(8B/L	.	(8d/L	.	(8f/L	.	.	.	.	.	.	.	.	.
8r	.	8ryy	.	8g/	U	.	8G/J)	.	8G/J)	.	8g/J)	.	.	.	.	.	.	.	.	.
=18	=18	=18	=18	=18	=18	=18	=18	=18	=18	=18	=18	=18	=18	=18	=18	=18	=18	=18	=18	=18
*	*	*	*	*	*	*	*	*	*	*	*	*	*	*	*^	*	*	*	*	*
4C/	.	4C/yy	.	4ee\	Krży-	.	8r	.	8r	.	8r	.	2.r	.	2.ee/	2.cc\	.	2.r	.	2.r	.
.	.	.	.	.	.	.	(8c/L	.	(8c/L	.	(8e/L	.	.	.	.	.	.	.	.	.	.
8r	.	8ryy	.	8b\	-ża	.	8G/J)	.	8G/J)	.	8g/J)	.	.	.	.	.	.	.	.	.	.
4C/	.	4C/yy	.	4cc\	stóp	.	8r	.	8r	.	8r	.	.	.	.	.	.	.	.	.	.
.	.	.	.	.	.	.	(8c/L	.	(8c/L	.	(8e/L	.	.	.	.	.	.	.	.	.	.
8r	.	8ryy	.	(16cc\LL	Me	.	8G/J)	.	8G/J)	.	8g/J)	.	.	.	.	.	.	.	.	.	.
.	.	.	.	16b\JJ)	.	.	.	.	.	.	.	.	.	.	.	.	.	.	.	.	.
*	*	*	*	*	*	*	*	*	*	*	*	*	*	*	*v	*v	*	*	*	*	*
=19	=19	=19	=19	=19	=19	=19	=19	=19	=19	=19	=19	=19	=19	=19	=19	=19	=19	=19	=19	=19
*	*	*	*	*	*	*	*2\right	*	*	*	*	*	*	*	*	*	*	*	*	*
4F\	.	4F\yy	.	4a/	ser-	.	2.f\ 2.A\	.	8r	.	8r	.	2.r	.	2.r	.	2.r	.	2.r	.
.	.	.	.	.	.	.	.	.	(8c/L	.	(8f/L	.	.	.	.	.	.	.	.	.
8r	.	8ryy	.	8a/	-ce	.	.	.	8A/J)	.	8a/J)	.	.	.	.	.	.	.	.	.
.	.	.	.	(8qb/	.	.	.	.	.	.	.	.	.	.	.	.	.	.	.	.
4F\	.	4F\yy	.	8.a/)	bez	.	.	.	8r	.	8r	.	.	.	.	.	.	.	.	.
.	.	.	.	.	.	.	.	.	(8c/L	.	(8f/L	.	.	.	.	.	.	.	.	.
.	.	.	.	(16g#X/KL	mi-	.	.	.	.	.	.	.	.	.	.	.	.	.	.	.
8r	.	8ryy	.	8a/J)	.	.	.	.	8A/J)	.	8a/J)	.	.	.	.	.	.	.	.	.
=20	=20	=20	=20	=20	=20	=20	=20	=20	=20	=20	=20	=20	=20	=20	=20	=20	=20	=20	=20	=20
4E\	.	4E\yy	.	(4.b\	-ło-	.	2.g#X\ 2.B\	.	8r	.	8r	.	2.r	.	2.r	.	2.r	.	2.r	.
.	.	.	.	.	.	.	.	.	(8B/L	.	8g#X/L	.	.	.	.	.	.	.	.	.
8r	.	8ryy	.	.	.	.	.	.	8e/J)	.	8e/J	.	.	.	.	.	.	.	.	.
.	.	.	.	16qqee/)	.	.	.	.	.	.	.	.	.	.	.	.	.	.	.	.
4E\	.	4E\yy	.	4ee\	-ści	.	.	.	8r	.	8r	.	.	.	.	.	.	.	.	.
.	.	.	.	.	.	.	.	.	8B/L	.	8g#/L	.	.	.	.	.	.	.	.	.
8r	.	8ryy	.	(16cc\LL	me	.	.	.	8e/J	.	8e/J	.	.	.	.	.	.	.	.	.
.	.	.	.	16b\JJ)	.	.	.	.	.	.	.	.	.	.	.	.	.	.	.	.
!!LO:PB:g=original
=21	=21	=21	=21	=21	=21	=21	=21	=21	=21	=21	=21	=21	=21	=21	=21	=21	=21	=21	=21	=21
*	*	*	*	*	*	*	*	*	*	*	*	*	*^	*	*^	*	*	*	*	*
!	!	!	!	!	!	!	!	!	!	!	!	!	!	!	!LO:DY:rj	!	!	!LO:DY:rj	!	!	!	!
4F\	.	4F\yy	.	4a/	ser-	.	2.f/ 2.A/	.	8r	.	8r	.	2.A/	2.F\	p	2.dd#X/	4.cc\	p	2.r	.	2.r	.
.	.	.	.	.	.	.	.	.	4A/	.	(8a/L	.	.	.	.	.	.	.	.	.	.	.
8r	.	8ryy	.	8a/	-ce	.	.	.	.	.	8d#X/J)	.	.	.	.	.	.	.	.	.	.	.
.	.	.	.	(32qqa/LLL	.	.	.	.	.	.	.	.	.	.	.	.	.	.	.	.	.	.
.	.	.	.	32qqb/JJJ	.	.	.	.	.	.	.	.	.	.	.	.	.	.	.	.	.	.
(4.F\	.	(4.F\yy	.	8.cc/)	bez	.	.	.	8r	.	8r	.	.	.	.	.	4.b\	.	.	.	.	.
.	.	.	.	.	.	.	.	.	4A/	.	(8a/L	.	.	.	.	.	.	.	.	.	.	.
.	.	.	.	(16b/KL	mi-	.	.	.	.	.	.	.	.	.	.	.	.	.	.	.	.	.
.	.	.	.	8a/J)	.	.	.	.	.	.	8d#/J)	.	.	.	.	.	.	.	.	.	.	.
=22	=22	=22	=22	=22	=22	=22	=22	=22	=22	=22	=22	=22	=22	=22	=22	=22	=22	=22	=22	=22	=22	=22
4E\)	.	4E\)yy	.	(16ee\LL	-ło-	.	4.g#X\ 4.B\	.	8r	.	8r	.	4.G#X/	4.E\	.	4.ee/	4.b\	.	2.r;	.	2.r;	.
.	.	.	.	16dd#X\	.	.	.	.	.	.	.	.	.	.	.	.	.	.	.	.	.	.
.	.	.	.	16ee\	.	.	.	.	(8B/L	.	(8g#X/L	.	.	.	.	.	.	.	.	.	.	.
.	.	.	.	16b\	.	.	.	.	.	.	.	.	.	.	.	.	.	.	.	.	.	.
8r	.	8ryy	.	16g#X\)	.	.	.	.	8e/J)	.	8e/J)	.	.	.	.	.	.	.	.	.	.	.
.	.	.	.	16b\JJ	.	.	.	.	.	.	.	.	.	.	.	.	.	.	.	.	.	.
4E;\	.	4E;\yy	.	4e;/	-ści.	.	4e;\	.	4e;/	.	4g#/ 4B;/	.	4G#;/	4E\	.	4ee;/	4b\	.	.	.	.	.
.	.	.	.	.	.	.	.	.	.	.	(32qqf/LLL	.	.	.	.	.	.	.	.	.	.	.
.	.	.	.	.	.	.	.	.	.	.	32qqe/	.	.	.	.	.	.	.	.	.	.	.
.	.	.	.	.	.	.	.	.	.	.	32qqd#X/JJJ)	.	.	.	.	.	.	.	.	.	.	.
8r	.	8ryy	.	8e/	Czy	.	8r	.	8r	.	8e/	.	8r	8r	.	8r	8ryy	.	.	.	.	.
*	*	*	*	*	*	*	*	*	*	*	*	*	*v	*v	*	*	*	*	*	*	*	*
*	*	*	*	*	*	*	*	*	*	*	*	*	*	*	*v	*v	*	*	*	*	*
=23	=23	=23	=23	=23	=23	=23	=23	=23	=23	=23	=23	=23	=23	=23	=23	=23	=23	=23	=23	=23
4AA/	.	4AA/yy	.	4cc\	wró-	.	4A/	.	4e/	.	4cc\	.	2.r	.	2.r	.	2.r	.	2.r	.
8BB/	.	8BB/yy	.	8g#X/	-ci	.	8B/	.	8e/	.	8g#X/	.	.	.	.	.	.	.	.	.
4C/	.	4C/yy	.	4a/	się	.	4c/	.	4e/	.	4a/	.	.	.	.	.	.	.	.	.
.	.	.	.	.	.	.	.	.	.	.	(32qqf/LLL	.	.	.	.	.	.	.	.	.
.	.	.	.	.	.	.	.	.	.	.	32qqe/	.	.	.	.	.	.	.	.	.
.	.	.	.	.	.	.	.	.	.	.	32qqd#X/JJJ)	.	.	.	.	.	.	.	.	.
8r	.	8ryy	.	8e/	Choć	.	8r	.	8r	.	8e/	.	.	.	.	.	.	.	.	.
=24	=24	=24	=24	=24	=24	=24	=24	=24	=24	=24	=24	=24	=24	=24	=24	=24	=24	=24	=24	=24
*	*	*	*	*	*	*	*	*	*	*	*	*	*	*	*	*	*^	*	*	*
4AA/	.	4AA/yy	.	4cc\	wró-	.	4A/	.	4e/	.	4cc\	.	2.r	.	2.r	.	4r	2.r	.	4r	.
8BB/	.	8BB/yy	.	8g#X/	-ci	.	8B/	.	8e/	.	8g#X/	.	.	.	.	.	8r	.	.	8r	.
4C/	.	4C/yy	.	4a/	Maj	.	4c/	.	4e/	.	4a/	.	.	.	.	.	4r	.	.	4r	.
!	!	!	!	!	!	!	!	!	!	!	!	!	!	!	!	!	!	!	!	!	!LO:DY:rj
8r	.	8ryy	.	8ee\	Ah!	.	8r	.	8r	.	8r	.	.	.	.	.	8ee/	.	.	8eee\	p
*	*	*	*	*	*	*	*	*	*	*	*	*	*	*	*	*	*v	*v	*	*	*
!!LO:LB:g=original
=25	=25	=25	=25	=25	=25	=25	=25	=25	=25	=25	=25	=25	=25	=25	=25	=25	=25	=25	=25	=25
4GG#X/	.	4GG#X/yy	.	4ff\	szczę-	.	8r	.	8r	.	8r	.	2.r	.	2.r	.	4ff/	.	4fff\	.
.	.	.	.	.	.	.	(8f\L	.	8d/L	.	8b\L	.	.	.	.	.	.	.	.	.
8r	.	8ryy	.	8ee\	-ście	.	8e\J)	.	8d/J	.	8b\J	.	.	.	.	.	8ee/	.	8eee\	.
4G#X\	.	4G#X\yy	.	4b\	co	.	8r	.	8r	.	8r	.	.	.	.	.	4b/	.	4bb\	.
.	.	.	.	.	.	.	8e\L	.	8d/L	.	8b\L	.	.	.	.	.	.	.	.	.
8r	.	8ryy	.	8b\	w śnie	.	8e\J	.	8d/J	.	8b\J	.	.	.	.	.	8b/	.	8bb\	.
=26	=26	=26	=26	=26	=26	=26	=26	=26	=26	=26	=26	=26	=26	=26	=26	=26	=26	=26	=26	=26
4A\	.	4A\yy	.	8.dd\	Pło-	.	8r	.	8r	.	8r	.	2.r	.	2.r	.	8.dd/L	.	8.ddd\L	.
.	.	.	.	.	.	.	8e\L	.	(8c/L	.	(8a/L	.	.	.	.	.	.	.	.	.
.	.	.	.	16cc\	-nie	.	.	.	.	.	.	.	.	.	.	.	16cc/K	.	16ccc\K	.
8r	.	8ryy	.	8b\	jak	.	8e\J	.	8d/J)	.	8g#X/J)	.	.	.	.	.	8b/J	.	8bb\J	.
4AA/	.	4AA/yy	.	4a/	kraj	.	4e\	.	4c/	.	4a/	.	.	.	.	.	4a/	.	4aa\	.
.	.	.	.	.	.	.	.	.	.	.	(32qqf/LLL	.	.	.	.	.	.	.	.	.
.	.	.	.	.	.	.	.	.	.	.	32qqe/	.	.	.	.	.	.	.	.	.
.	.	.	.	.	.	.	.	.	.	.	32qqd#X/JJJ)	.	.	.	.	.	.	.	.	.
8r	.	8ryy	.	8e/	Czy	.	8r	.	8r	.	8e/	.	.	.	.	.	8r	.	8r	.
=27	=27	=27	=27	=27	=27	=27	=27	=27	=27	=27	=27	=27	=27	=27	=27	=27	=27	=27	=27	=27
4AA/	.	4AA/yy	.	4cc\	wró-	.	4A/	.	4e/	.	4cc\	.	2.r	.	2.r	.	2.r	.	2.r	.
8BB/	.	8BB/yy	.	8g#X/	-ci	.	8B/	.	8e/	.	8g#X/	.	.	.	.	.	.	.	.	.
4C/	.	4C/yy	.	4a/	się	.	4c/	.	4e/	.	4a/	.	.	.	.	.	.	.	.	.
.	.	.	.	.	.	.	.	.	.	.	(32qqf/LLL	.	.	.	.	.	.	.	.	.
.	.	.	.	.	.	.	.	.	.	.	32qqe/	.	.	.	.	.	.	.	.	.
.	.	.	.	.	.	.	.	.	.	.	32qqd#X/JJJ)	.	.	.	.	.	.	.	.	.
8r	.	8ryy	.	8e/	Noc	.	8r	.	8r	.	8e/	.	.	.	.	.	.	.	.	.
=28	=28	=28	=28	=28	=28	=28	=28	=28	=28	=28	=28	=28	=28	=28	=28	=28	=28	=28	=28	=28
4AA/	.	4AA/yy	.	(16cc\LL	jas-	.	4A/	.	4e/	.	4cc\	.	2.r	.	2.r	.	4r	.	4r	.
.	.	.	.	16dd\J	.	.	.	.	.	.	.	.	.	.	.	.	.	.	.	.
.	.	.	.	8cc\J)	.	.	.	.	.	.	.	.	.	.	.	.	.	.	.	.
8BB/	.	8BB/yy	.	8g#X/	-na	.	8B/	.	8e/	.	8g#X/	.	.	.	.	.	8r	.	8r	.
4C/	.	4C/yy	.	4a/	ta	.	4c/	.	4e/	.	4a/	.	.	.	.	.	4r	.	4r	.
8r	.	8ryy	.	8ee\	I	.	8r	.	8r	.	8r	.	.	.	.	.	8ee/	.	8eee\	.
!!LO:PB:g=original
=29	=29	=29	=29	=29	=29	=29	=29	=29	=29	=29	=29	=29	=29	=29	=29	=29	=29	=29	=29	=29
*	*	*	*	*	*	*	*	*	*	*	*	*	*	*	*	*	*^	*	*	*
!	!	!	!	!	!	!LO:DY:a	!	!	!	!	!	!	!	!	!	!	!	!	!	!	!
4D\	.	4D\yy	.	4ggn\	pie-	>	8r	.	8r	.	8r	.	2.r	.	2.r	.	4gg/	2.r	.	4ggg\	.
.	.	.	.	.	.	.	4d\	.	(8f/L	.	(8b/L	.	.	.	.	.	.	.	.	.	.
8r	.	8ryy	.	8ff\	-śni	.	.	.	8d/J)	.	8f/J)	.	.	.	.	.	8ff/	.	.	8fff\	.
4D\	.	4D\yy	.	4dd\	te	]	8r	.	8r	.	8r	.	.	.	.	.	4dd/	.	.	4ddd\	.
.	.	.	.	.	.	.	4d\	.	(8f/L	.	(8b/L	.	.	.	.	.	.	.	.	.	.
8r	.	8ryy	.	8b\	Co	.	.	.	8d/J)	.	8f/J)	.	.	.	.	.	8b/	.	.	8bb\	.
=30	=30	=30	=30	=30	=30	=30	=30	=30	=30	=30	=30	=30	=30	=30	=30	=30	=30	=30	=30	=30	=30
.	.	.	.	(32qqa/LLL	.	.	.	.	.	.	.	.	.	.	.	.	(32qqa/LLL	.	.	(32qqaa/LLL	.
.	.	.	.	32qqb/JJJ	.	.	.	.	.	.	.	.	.	.	.	.	32qqb/JJJ	.	.	32qqbb/JJJ)	.
4E\	.	4E\yy	.	(8.cc/)L	ser-	.	8r	.	8r	.	8r	.	2.r	.	2.r	.	8.cc/L)	2.r	.	8.ccc\L	.
.	.	.	.	.	.	.	4e\	.	4c/	.	(8a/L	.	.	.	.	.	.	.	.	.	.
.	.	.	.	16b/K	.	.	.	.	.	.	.	.	.	.	.	.	16b/K	.	.	16bb\K	.
8r	.	8ryy	.	8a/J)	.	.	.	.	.	.	8e/J)	.	.	.	.	.	8a/J	.	.	8aa\J	.
.	.	.	.	(32qqg#X/LLL	.	.	.	.	.	.	.	.	.	.	.	.	(32qqg#X/LLL	.	.	(32qqgg#X/LLL	.
.	.	.	.	32qqa/JJJ	.	.	.	.	.	.	.	.	.	.	.	.	32qqa/JJJ	.	.	32qqaa/JJJ)	.
4E\	.	4E\yy	.	8.b/L	-ce	.	8r	.	8r	.	8r	.	.	.	.	.	8.b/L)	.	.	8.bb\L	.
.	.	.	.	.	.	.	4e\	.	4B/	.	8g#X/L	.	.	.	.	.	.	.	.	.	.
.	.	.	.	16a/K	.	.	.	.	.	.	.	.	.	.	.	.	16a/K	.	.	16aa\K	.
8r	.	8ryy	.	8g#y/J)	.	.	.	.	.	.	8e/J	.	.	.	.	.	8g#/J	.	.	8gg#\J	.
=31||	=31||	=31||	=31||	=31||	=31||	=31||	=31||	=31||	=31||	=31||	=31||	=31||	=31||	=31||	=31||	=31||	=31||	=31||	=31||	=31||	=31||
*	*	*	*	*	*	*	*	*	*	*	*	*	*^	*	*	*	*	*	*	*	*
!!!OMD:Agitato.
!	!LO:DY:a:rj	!	!LO:DY:a:rj	!	!	!	!	!	!	!	!	!LO:DY:rj	!	!	!	!	!LO:DY:rj	!	!	!	!	!LO:DY:rj
8A\	f	8A\yy	fy	16a\LL	zna-	.	8e/ 8A/	.	8c/	.	8a/	f	8A\	8AA\	.	8ee/ 8e/	f	8cc/	8a\	.	8aa\	f
.	.	.	.	(16ee\	.	.	.	.	.	.	.	.	.	.	.	.	.	.	.	.	.	.
8r	.	8ryy	.	16dd#X\	.	.	8r	.	8r	.	8r	.	8r	8ryy	.	8r	.	8r	8ryy	.	8r	.
.	.	.	.	16ee\	.	.	.	.	.	.	.	.	.	.	.	.	.	.	.	.	.	.
8r	.	8ryy	.	16dd#\	.	.	8r	.	8r	.	8r	.	8r	2ryy	.	8r	.	8r	8ryy	.	8r	.
.	.	.	.	16ee\JJ	.	.	.	.	.	.	.	.	.	.	.	.	.	.	.	.	.	.
8G#X\	.	8G#X\yy	.	16b\LL	.	.	8e\	.	8d/	.	8b/	.	8G#X\ 8GG#X\	.	.	8ee/ 8e/	.	8dd/	8b\	.	8bb\	.
.	.	.	.	16ee\	.	.	.	.	.	.	.	.	.	.	.	.	.	.	.	.	.	.
8r	.	8ryy	.	16dd#\	.	.	8r	.	8r	.	8r	.	8r	.	.	8r	.	8r	8ryy	.	8r	.
.	.	.	.	16ee\	.	.	.	.	.	.	.	.	.	.	.	.	.	.	.	.	.	.
8r	.	8ryy	.	16dd#\	.	.	8r	.	8r	.	8r	.	8r	.	.	8r	.	8r	8ryy	.	8r	.
.	.	.	.	16ee\JJ	.	.	.	.	.	.	.	.	.	.	.	.	.	.	.	.	.	.
*	*	*	*	*	*	*	*	*	*	*	*	*	*v	*v	*	*	*	*	*	*	*	*
=32	=32	=32	=32	=32	=32	=32	=32	=32	=32	=32	=32	=32	=32	=32	=32	=32	=32	=32	=32	=32	=32
8A\	.	8A\yy	.	16cc\LL	.	.	8e\ 8A\	.	8c/	.	8a/	.	8A\ 8AA\	.	8ee/ 8e/	.	8cc/	8a\	.	8aa\	.
.	.	.	.	16ee\	.	.	.	.	.	.	.	.	.	.	.	.	.	.	.	.	.
8r	.	8ryy	.	16dd#X\	.	.	8r	.	8r	.	8r	.	8r	.	8r	.	8r	8ryy	.	8r	.
.	.	.	.	16ee\	.	.	.	.	.	.	.	.	.	.	.	.	.	.	.	.	.
8r	.	8ryy	.	16dd#\	.	.	8r	.	8r	.	8r	.	8r	.	8r	.	8r	8ryy	.	8r	.
.	.	.	.	16ee\JJ	.	.	.	.	.	.	.	.	.	.	.	.	.	.	.	.	.
8E\	.	8E\yy	.	16ff\LL	.	.	8e\ 8B\	.	8d/	.	8g#X/	.	8E/ 8EE/	.	8ee/ 8e/	.	8b/ 8g#X/	4ryy	.	8gg#X\	.
.	.	.	.	16ee\	.	.	.	.	.	.	.	.	.	.	.	.	.	.	.	.	.
8r	.	8ryy	.	16dd#\	.	.	8r	.	8r	.	8r	.	8r	.	4r	.	8r	.	.	8r	.
.	.	.	.	16ee\	.	.	.	.	.	.	.	.	.	.	.	.	.	.	.	.	.
8r	.	8ryy	.	16ddn\	.	.	8r	.	8r	.	8r	.	8r	.	.	.	8r	8ryy	.	8r	.
.	.	.	.	16b\JJ)	.	.	.	.	.	.	.	.	.	.	.	.	.	.	.	.	.
*	*	*	*	*	*	*	*	*	*	*	*	*	*	*	*	*	*v	*v	*	*	*
!!LO:LB:g=original
=33	=33	=33	=33	=33	=33	=33	=33	=33	=33	=33	=33	=33	=33	=33	=33	=33	=33	=33	=33	=33
!	!LO:DY:a:rj	!	!LO:DY:a:rj	!	!	!	!	!LO:DY:rj	!	!	!	!LO:DY:rj	!	!	!	!	!	!	!	!
8A\	p	8A\yy	py	(16a\LL	-zna-	.	8r	p	8r	.	8r	p	2.r	.	2.r	.	2.r	.	2.r	.
.	.	.	.	16ee\	.	.	.	.	.	.	.	.	.	.	.	.	.	.	.	.
8r	.	8ryy	.	16dd#X\	.	.	8e\L	.	8c/L	.	8a/L	.	.	.	.	.	.	.	.	.
.	.	.	.	16ee\	.	.	.	.	.	.	.	.	.	.	.	.	.	.	.	.
8r	.	8ryy	.	16dd#\	.	.	8e\J	.	8c/J	.	8a/J	.	.	.	.	.	.	.	.	.
.	.	.	.	16ee\JJ	.	.	.	.	.	.	.	.	.	.	.	.	.	.	.	.
8G#X\	.	8G#X\yy	.	16b\LL	.	.	8r	.	8r	.	8r	.	.	.	.	.	.	.	.	.
.	.	.	.	16ee\	.	.	.	.	.	.	.	.	.	.	.	.	.	.	.	.
8r	.	8ryy	.	16dd#\	.	.	8e\L	.	8d/L	.	8b/L	.	.	.	.	.	.	.	.	.
.	.	.	.	16ee\	.	.	.	.	.	.	.	.	.	.	.	.	.	.	.	.
8r	.	8ryy	.	16dd#\	.	.	8e\J	.	8d/J	.	8b/J	.	.	.	.	.	.	.	.	.
.	.	.	.	16ee\JJ	.	.	.	.	.	.	.	.	.	.	.	.	.	.	.	.
=34	=34	=34	=34	=34	=34	=34	=34	=34	=34	=34	=34	=34	=34	=34	=34	=34	=34	=34	=34	=34
8A\	.	8A\yy	.	16cc\LL	.	.	8r	.	8r	.	8r	.	2.r	.	2.r	.	2.r	.	2.r	.
.	.	.	.	16ee\	.	.	.	.	.	.	.	.	.	.	.	.	.	.	.	.
8r	.	8ryy	.	16dd#X\	.	.	8e\L	.	8c/L	.	8a/L	.	.	.	.	.	.	.	.	.
.	.	.	.	16ee\	.	.	.	.	.	.	.	.	.	.	.	.	.	.	.	.
8r	.	8ryy	.	16dd#\	.	.	8e\J	.	8c/J	.	8a/J	.	.	.	.	.	.	.	.	.
.	.	.	.	16ee\JJ	.	.	.	.	.	.	.	.	.	.	.	.	.	.	.	.
8E\	.	8E\yy	.	16ff\LL	.	.	8r	.	8r	.	8r	.	.	.	.	.	.	.	.	.
.	.	.	.	16ee\	.	.	.	.	.	.	.	.	.	.	.	.	.	.	.	.
8r	.	8ryy	.	16dd#\	.	.	8e\L 8B\	.	8d/L	.	8g#X/L	.	.	.	.	.	.	.	.	.
.	.	.	.	16ee\	.	.	.	.	.	.	.	.	.	.	.	.	.	.	.	.
8r	.	8ryy	.	16ff#X\	.	.	8e\J 8B\	.	8d/J	.	8b/J	.	.	.	.	.	.	.	.	.
.	.	.	.	16gg#X\JJ)	.	.	.	.	.	.	.	.	.	.	.	.	.	.	.	.
=35	=35	=35	=35	=35	=35	=35	=35	=35	=35	=35	=35	=35	=35	=35	=35	=35	=35	=35	=35	=35
*	*	*	*	*	*	*	*	*	*	*	*	*	*	*	*^	*	*^	*	*	*
!LO:TX:t=P:problem:mixed beam	!	!LO:TX:t=P:problem:mixed beam	!	!	!	!	!	!LO:DY:rj	!	!	!	!LO:DY:rj	!	!LO:DY:rj	!	!	!	!	!	!LO:DY:rj	!	!LO:DY:rj
8AA/L	f	8AA/Lyy	fy	4.aa\	-zna	.	8e/L 8A/	f	8c/L	.	8a/L	f	4.A\ 4.AA\	f	4.ee/	4.cc\	.	4.aa\	4.cc\	f	4.aaa\	f
8A\	.	8A\yy	.	.	.	.	8e/ 8A/	.	8c/	.	8a/	.	.	.	.	.	.	.	.	.	.	.
8A\J	.	8A\Jyy	.	.	.	.	8e/J 8A/	.	8c/J	.	8a/J	.	.	.	.	.	.	.	.	.	.	.
8F\L	.	8F\Lyy	.	4.a/	I	.	8f/L 8A/	.	8c/L	.	8a/L	.	4.F/ 4.FF/	.	4.ff/	4.cc\	.	4.a/	4.f\	.	4.aa\	.
8F\	.	8F\yy	.	.	.	.	8f/ 8A/	.	8c/	.	8a/	.	.	.	.	.	.	.	.	.	.	.
8F\J	.	8F\Jyy	.	.	.	.	8f/J 8A/	.	8c/J	.	8a/J	.	.	.	.	.	.	.	.	.	.	.
=36	=36	=36	=36	=36	=36	=36	=36	=36	=36	=36	=36	=36	=36	=36	=36	=36	=36	=36	=36	=36	=36	=36
*tremolo	*	*tremolo	*	*	*	*	*tremolo	*	*tremolo	*	*tremolo	*	*	*	*	*	*	*	*	*	*	*
8D\L	.	8D\Lyy	.	(8.b\L	pie-	.	8f\L 8d\	.	8d/L	.	8b\L	.	4.D/ 4.DD/	.	4.ff/	4.dd\	.	8.b/L	4.f\	.	8.bb\L	.
8D\	.	8D\yy	.	.	.	.	8f\ 8d\	.	8d/	.	8b\	.	.	.	.	.	.	.	.	.	.	.
.	.	.	.	16cc\L	.	.	.	.	.	.	.	.	.	.	.	.	.	16cc/L	.	.	(16ccc\L	.
8D\	.	8D\yy	.	16dd\	.	.	8f\ 8d\	.	8d/	.	8b\	.	.	.	.	.	.	16dd/	.	.	16ddd\	.
.	.	.	.	16ee\JJ)	.	.	.	.	.	.	.	.	.	.	.	.	.	16ee/JJ	.	.	16eee\JJ)	.
8D\	.	8D\yy	.	4.ff\	-śni	.	8f\ 8d\	.	8d/	.	8b\	.	4.D/ 4.DD/	.	4.ff/	4.dd\	.	4.ff/	4.b\	.	4.fff\	.
8D\	.	8D\yy	.	.	.	.	8f\ 8d\	.	8d/	.	8b\	.	.	.	.	.	.	.	.	.	.	.
8D\J	.	8D\Jyy	.	.	.	.	8f\J 8d\	.	8d/J	.	8b\J	.	.	.	.	.	.	.	.	.	.	.
*Xtremolo	*	*Xtremolo	*	*	*	*	*Xtremolo	*	*Xtremolo	*	*Xtremolo	*	*	*	*	*	*	*	*	*	*	*
*	*	*	*	*	*	*	*	*	*	*	*	*	*	*	*v	*v	*	*	*	*	*	*
!!LO:PB:g=original
=37	=37	=37	=37	=37	=37	=37	=37	=37	=37	=37	=37	=37	=37	=37	=37	=37	=37	=37	=37	=37	=37
8E\	.	8E\yy	.	(8.ee\L	te	.	8e\ 8A\	.	8e/ 8c/	.	8a/	.	8E/ 8EE/	.	8ee\ 8cc\	.	8.ee/L	8cc\	.	8.eee\L	.
8r	.	8ryy	.	.	.	.	8r	.	8r	.	8r	.	8r	.	8r	.	.	8r	.	.	.
.	.	.	.	16dd\Jk)	.	.	.	.	.	.	.	.	.	.	.	.	16dd/K	.	.	16ddd\K	.
8r	.	8ryy	.	8cc\|	Co	.	8r	.	8r	.	8r	.	8r	.	8r	.	8cc/J	8r	.	8ccc\J	.
8E\	.	8E\yy	.	8b\L	ser-	.	8e\ 8B\	.	8e/ 8d/	.	8g#X/	.	8E/ 8EE/	.	8ee\ 8dd\	.	8b/	8g#X\	.	8bb\	.
.	.	.	.	(8qee/	.	.	.	.	.	.	.	.	.	.	.	.	.	.	.	.	.
8r	.	8ryy	.	8.dd;\J)	.	.	8r	.	8r	.	8r	.	8r	.	8r	.	8r	8ryy	.	8r	.
8r	.	8ryy	.	.	.	.	8r;	.	8r;	.	8r;	.	8r;	.	8r;	.	8r;	8ryy	.	8r;	.
.	.	.	.	16b\	-ce	.	.	.	.	.	.	.	.	.	.	.	.	.	.	.	.
*	*	*	*	*	*	*	*	*	*	*	*	*	*	*	*	*	*v	*v	*	*	*
=38	=38	=38	=38	=38	=38	=38	=38	=38	=38	=38	=38	=38	=38	=38	=38	=38	=38	=38	=38	=38
!	!LO:HP:a	!	!LO:HP:a	!	!	!LO:HP:b	!	!	!	!	!	!	!	!	!	!	!	!	!	!
(4.A\	<	(4.A\yy	<	(4.a/	zna.	<	4.e\ 4.A\	.	4.e/ 4.c/	.	4.a/	.	4r	.	4r	.	4r	.	4r	.
.	.	.	.	.	.	.	.	.	.	.	.	.	8r	.	8r	.	8r	.	8r	.
!	!LO:DY:a:rj	!	!LO:DY:a:rj	!	!	!	!	!LO:DY:rj	!	!	!	!LO:DY:rj	!	!	!	!LO:DY:rj	!	!LO:DY:rj	!	!LO:DY:rj
8AA/)	[ f	8AA/)yy	[ fy	8aa\)	.	[	8a\ 8e\ 8A\	f	8cc/ 8e/	.	8aa\ 8a\	f	8A\ 8AA\	.	8ee\ 8cc\	f	8aa\ 8cc\	f	8aaa\	f
8r	.	8ryy	.	8r	.	.	8r	.	8r	.	8r	.	8r	.	8r	.	8r	.	8r	.
8r	.	8ryy	.	8r	.	.	8r	.	8r	.	8e/	.	8r	.	8r	.	8r	.	8ee\	.
=39	=39	=39	=39	=39	=39	=39	=39	=39	=39	=39	=39	=39	=39	=39	=39	=39	=39	=39	=39	=39
4.D/	.	4.D/yy	.	2.r	.	.	8r	.	8r	.	(16d#X/LL	.	4.D/	.	8r	.	8r	.	(16dd#X\LL	.
.	.	.	.	.	.	.	.	.	.	.	16e/	.	.	.	.	.	.	.	16ee\	.
.	.	.	.	.	.	.	8G#X/L 8E/	.	8B/L	.	16f#X/	.	.	.	8ee/L 8e/	.	8b/L 8g#X/	.	16ff#X\	.
.	.	.	.	.	.	.	.	.	.	.	16g#X/	.	.	.	.	.	.	.	16gg#X\	.
.	.	.	.	.	.	.	8G#/J 8E/	.	8B/J	.	16a/)	.	.	.	8ee/J 8e/	.	8b/J 8g#/	.	16aa\	.
.	.	.	.	.	.	.	.	.	.	.	16b/JJ	.	.	.	.	.	.	.	16bb\JJ)	.
4.C/	.	4.C/yy	.	.	.	.	8r	.	8r	.	(16a\LL	.	4.C/	.	8r	.	8r	.	(16aa\LL	.
.	.	.	.	.	.	.	.	.	.	.	16b\	.	.	.	.	.	.	.	16bb\	.
.	.	.	.	.	.	.	8A/L 8E/	.	8A/L	.	16cc\	.	.	.	8ee/L 8e/	.	8a/L	.	16ccc\	.
.	.	.	.	.	.	.	.	.	.	.	16dd\	.	.	.	.	.	.	.	16ddd\	.
.	.	.	.	.	.	.	8A/J 8E/	.	8A/J	.	16dd#X\	.	.	.	8ee/J 8e/	.	8a/J	.	16ddd#X\	.
.	.	.	.	.	.	.	.	.	.	.	16ee\JJ)	.	.	.	.	.	.	.	16eee\JJ)	.
=40	=40	=40	=40	=40	=40	=40	=40	=40	=40	=40	=40	=40	=40	=40	=40	=40	=40	=40	=40	=40
4.D\	.	4.D\yy	.	2.r	.	.	8r	.	8r	.	(16gg\LL	.	4.D\	.	8r	.	8r	.	(16ggg\LL	.
.	.	.	.	.	.	.	.	.	.	.	16ff\	.	.	.	.	.	.	.	16fff\	.
.	.	.	.	.	.	.	8F/L 8D/	.	8B/L	.	16ee\	.	.	.	8ff\L 8dd\	.	8b/L 8f/	.	16eee\	.
.	.	.	.	.	.	.	.	.	.	.	16dd\	.	.	.	.	.	.	.	16ddd\	.
.	.	.	.	.	.	.	8F/J 8D/	.	8B/J	.	16cc\	.	.	.	8ff\J 8dd\	.	8b/J 8f/	.	16ccc\	.
.	.	.	.	.	.	.	.	.	.	.	16b\JJ)	.	.	.	.	.	.	.	16bb\JJ)	.
4.E\	.	4.E\yy	.	.	.	.	8r	.	8r	.	(16cc/LL	.	4.E\	.	8r	.	8r	.	(16ccc\LL	.
.	.	.	.	.	.	.	.	.	.	.	16b/	.	.	.	.	.	.	.	16bb\	.
.	.	.	.	.	.	.	8A/L	.	8c/L	.	16a/	.	.	.	8ee\L 8cc\	.	8a/L 8c/	.	16aa\	.
.	.	.	.	.	.	.	.	.	.	.	16cc/	.	.	.	.	.	.	.	16ccc\	.
.	.	.	.	.	.	.	8B/J	.	8d/J	.	16b/	.	.	.	8ee\J 8dd\	.	8g#X/J 8B/	.	16bb\	.
.	.	.	.	.	.	.	.	.	.	.	16g#X/JJ)	.	.	.	.	.	.	.	16gg#X\JJ)	.
!!LO:LB:g=original
=41	=41	=41	=41	=41	=41	=41	=41	=41	=41	=41	=41	=41	=41	=41	=41	=41	=41	=41	=41	=41
4A\	.	4A\yy	.	2.r	.	.	4A/	.	4c/	.	4a/	.	4A\	.	8ee\ 8cc\	.	8a/ 8c/	.	4aa\	.
.	.	.	.	.	.	.	.	.	.	.	.	.	.	.	8ryy	.	8ryy	.	.	.
*	*	*	*	*	*	*	*Xtuplet	*	*	*	*	*	*	*	*	*	*	*	*	*
!LO:TX:t=P:problem:klamra łukowa	!	!LO:TX:t=P:problem:klamra łukowa	!	!	!	!	!LO:TX:t=P:problem:klamra łukowa	!	!LO:TX:t=P:problem:klamra łukowa	!	!LO:TX:t=P:problem:klamra łukowa	!	!	!	!	!	!	!	!	!
!LO:TUP:a	!	!LO:TUP:a	!	!	!	!	!	!	!LO:TUP:b	!	!LO:TUP:b	!	!	!	!	!	!	!	!	!
24F\LL	.	24F\LLyy	.	.	.	.	24f\LL	.	24f/LL	.	24f/LL	.	8r	.	8r	.	8r	.	8r	.
24G\	.	24G\yy	.	.	.	.	24g\	.	24g/	.	24g/	.	.	.	.	.	.	.	.	.
24F\JJ	.	24F\JJyy	.	.	.	.	24f\JJ	.	24f/JJ	.	24f/JJ	.	.	.	.	.	.	.	.	.
4E\	.	4E\yy	.	.	.	.	4e\	.	4e/	.	4e/	.	8r	.	8r	.	8r	.	8r	.
.	.	.	.	.	.	.	.	.	.	.	.	.	8r	.	8r	.	8r	.	8r	.
8E\	.	8E\yy	.	.	.	.	8B/	.	8e/ 8d/	.	8g#X/	.	8E\	.	8ee\ 8dd\	.	8dd\ 8b\	.	8gg#X\	.
=42	=42	=42	=42	=42	=42	=42	=42	=42	=42	=42	=42	=42	=42	=42	=42	=42	=42	=42	=42	=42
!LO:TX:t=P:problem:mixed beam	!	!LO:TX:t=P:problem:mixed beam	!	!	!	!	!LO:TX:t=P:problem:mixed beam	!	!	!	!	!	!	!	!	!	!	!	!	!
16AA'/LL	.	16AA'/LLyy	.	2.r	.	.	16A'/LL	.	16e/LL 16c'/	.	16a'/LL	.	16A\LL	.	8ee\ 8cc\	.	16cc\LL 16a'\	.	16aa'\LL	.
(16A\	.	(16A\yy	.	.	.	.	(16a\	.	(16a/	.	(16a/	.	(16A\	.	.	.	(16a\	.	(16aa\	.
16G#X\	.	16G#X\yy	.	.	.	.	16g#X\	.	16g#X/	.	16g#X/	.	16G#X\	.	8r	.	16g#X\	.	16gg#X\	.
16A\	.	16A\yy	.	.	.	.	16a\	.	16a/	.	16a/	.	16A\	.	.	.	16a\	.	16aa\	.
16E\	.	16E\yy	.	.	.	.	16e\	.	16cc/	.	16cc/	.	16E\	.	8r	.	16cc\	.	16ccc\	.
16C\JJ)	.	16C\JJ)yy	.	.	.	.	16c\JJ)	.	16ee/JJ)	.	16ee/JJ)	.	16C\JJ	.	.	.	16ee\JJ	.	16eee\JJ)	.
8AA/	.	8AA/yy	.	.	.	.	8A/	.	8cc/ 8e/	.	8aa\ 8a\	.	8AA/)	.	8ee\ 8cc\	.	8aa\ 8a\)	.	8aaa\	.
8r	.	8ryy	.	.	.	.	8r	.	8r	.	8r	.	8r	.	8r	.	8r	.	8r	.
8r	.	8ryy	.	.	.	.	8r	.	8r	.	8r	.	8r	.	8r	.	8r	.	8r	.
==	==	==	==	==	==	==	==	==	==	==	==	==	==	==	==	==	==	==	==	==
*-	*-	*-	*-	*-	*-	*-	*-	*-	*-	*-	*-	*-	*-	*-	*-	*-	*-	*-	*-	*-
!!!system-decoration: (s1,s2,s3,s4),({<g1>,s7},s8,{s9,s10})
!!!RDF**kern: > = above
!!!RDF**kern: < = below
!!!RDF**kern: | = vertical stroke
!!!EED: Andrzej Borzym
!!!EST: 2021-06-12
!!!ENC: Andrzej Gręziak
!!!END: 2021-05-21
